X:362
T:The beautiful [Serabmagg?] by G.B.
C:John Malchair's Third Collection of Tunes
F:https://www.vwml.org/record/Malchair/3619/p36
F:www.vwml.org/topics/historic-dance-and-tune-books/Malchair
Z:Eric Conrad Feb 2020
N:NB1 Meter changed from 6/6 tp 6/8.
N:NB2 Added repeat of B strain.
M:6/8
L:1/8
K:Dmin
P:A
"_NB1"A/G/ | F>ED FAA, | D3 f3 | (e/f/)gf efd | ^c3- c2(B/A/) |
F>ED FAA, | D3 f3 | (e/f/)g(f ea)A | d3- d2 ||
P:B
|: "_NB2"(f/e/) | f>ef gab | a3 f2c/B/ | ABc G>FE | F3- F2(g/f/) |
E>FG ABc | ^B>cd ^c>de | (fA)f f>ed | d3- d2 :|

% %%%%%%%%%%%%%%%%%%%%%%%%%%%%%%%%%%%%%%%%%%%%%%%%%%%%%%%%%%%%%%%%%%%%%%%%%%%%%%%%%%%%
% PAGES 50-75
% %%%%%%%%%%%%%%%%%%%%%%%%%%%%%%%%%%%%%%%%%%%%%%%%%%%%%%%%%%%%%%%%%%%%%%%%%%%%%%%%%%%%

